X:1
T:Billy Boy
M:6/8
C:
S:Bacon (RKS from Benfield (1925))
N:
A:Bledington
O:English
R:Jig
%P:A/2.(AB)$^4$.(A)
P:A.(AB)4.(A)
%:
%:
K:G
I:speed 300
P:A
|: GBd  cAB | c2 A AGA | B2 G E2 E | DEF G3  :|\
P:B
|: Bcd  ecA | B2 c dBG | Bcd  e2 e | ABc dcA |\
   GBd  cAB | cBc  AFD | B2 G E2 E | DEF G3  :|
